static/img/general/features-icon-6.svg

<svg width="47" height="47" viewBox="0 0 47 47" fill="none" xmlns="http://www.w3.org/2000/svg">
<path d="M38.5 8.9455V4.75C38.4974 2.68 36.82 1.00263 34.75 1H4.75C2.68 1.00263 1.00263 2.68 1 4.75V21.25C1.00581 23.1653 2.45763 24.7671 4.363 24.9614L7.18225 32.2797C7.927 34.2121 10.0971 35.1747 12.0297 34.4309L29.635 27.649C28.4185 30.8266 28.7646 34.3911 30.5691 37.2754L31 37.9645V45.25C31 45.6644 31.3356 46 31.75 46H45.25C45.6644 46 46 45.6644 46 45.25V20.4934C45.9929 17.8998 44.9603 15.4146 43.1266 13.5803L38.5 8.9455ZM38.5 13.4309L40.7763 19.3398C41.2223 20.4996 40.6443 21.8011 39.4846 22.2475L38.1835 22.75C38.3913 22.2771 38.4989 21.766 38.5 21.25V13.4309ZM2.5 21.25V4.75C2.5 3.50763 3.50763 2.5 4.75 2.5H34.75C35.9924 2.5 37 3.50763 37 4.75V9.517H36.9934L37 9.53406V21.25C36.9942 21.3809 36.9771 21.5106 36.949 21.6385L30.079 14.7678C28.5348 13.2591 26.0729 13.2475 24.5148 14.7404C22.9563 16.2342 22.8627 18.6942 24.304 20.3011L27.2328 23.5H4.75C3.50763 23.5 2.5 22.4924 2.5 21.25ZM12.1083 25L6.775 27.0533L5.986 25H12.1083ZM11.4903 33.0308C10.3308 33.4778 9.02856 32.8998 8.58175 31.7403L7.3165 28.45L16.2693 25V24.9955H28.6075L29.5823 26.0583L11.4903 33.0308ZM44.5 44.5H32.5V38.5H44.5V44.5ZM44.5 37H32.1663L31.8409 36.4803C30.0123 33.5579 29.9395 29.8668 31.651 26.875C31.813 26.5919 31.7733 26.2364 31.5528 25.996L25.4067 19.291C24.4902 18.2879 24.5418 16.7371 25.5229 15.7975C26.5045 14.8578 28.0561 14.8731 29.0183 15.8316L40.9698 27.7803L42.0303 26.7198L39.2553 23.9448L40.0248 23.6448C41.9556 22.8998 42.9179 20.7316 42.175 18.7996L39.6364 12.2078L42.0661 14.6425C43.6186 16.1946 44.494 18.298 44.5 20.4934V37Z" fill="#E20E17" stroke="#E20E17" stroke-width="0.1"/>
<path d="M9.55 11.5C10.627 11.5 11.5 10.627 11.5 9.55V5.95C11.5 4.873 10.627 4 9.55 4H5.95C4.873 4 4 4.873 4 5.95V9.55C4 10.627 4.873 11.5 5.95 11.5H9.55ZM5.5 9.55V8.5H7V7H5.5V5.95C5.5 5.70156 5.70156 5.5 5.95 5.5H9.55C9.79844 5.5 10 5.70156 10 5.95V7H8.5V8.5H10V9.55C10 9.79844 9.79844 10 9.55 10H5.95C5.70156 10 5.5 9.79844 5.5 9.55Z" fill="#E20E17" stroke="#E20E17" stroke-width="0.1"/>
<path d="M4.75 13.75H7.75V15.25H4.75V13.75Z" fill="#E20E17" stroke="#E20E17" stroke-width="0.1"/>
<path d="M4.75 18.25H7.75V19.75H4.75V18.25Z" fill="#E20E17" stroke="#E20E17" stroke-width="0.1"/>
<path d="M18.25 18.25H21.25V19.75H18.25V18.25Z" fill="#E20E17" stroke="#E20E17" stroke-width="0.1"/>
<path d="M9.25 13.75H12.25V15.25H9.25V13.75Z" fill="#E20E17" stroke="#E20E17" stroke-width="0.1"/>
<path d="M13.75 13.75H16.75V15.25H13.75V13.75Z" fill="#E20E17" stroke="#E20E17" stroke-width="0.1"/>
<path d="M18.25 13.75H21.25V15.25H18.25V13.75Z" fill="#E20E17" stroke="#E20E17" stroke-width="0.1"/>
<path d="M32.5 4.75H34V7H32.5V4.75Z" fill="#E20E17" stroke="#E20E17" stroke-width="0.1"/>
<path d="M29.5 4.75H31V7H29.5V4.75Z" fill="#E20E17" stroke="#E20E17" stroke-width="0.1"/>
<path d="M26.5 4.75H28V7H26.5V4.75Z" fill="#E20E17" stroke="#E20E17" stroke-width="0.1"/>
<path d="M23.5 4.75H25V7H23.5V4.75Z" fill="#E20E17" stroke="#E20E17" stroke-width="0.1"/>
<path d="M33.9998 40H35.4997V41.5H33.9998V40Z" fill="#E20E17" stroke="#E20E17" stroke-width="0.1"/>
</svg>

<svg width="47" height="47" viewBox="0 0 47 47" fill="none" xmlns="http://www.w3.org/2000/svg"><path d="M38.5 8.945V4.75A3.755 3.755 0 0 0 34.75 1h-30A3.755 3.755 0 0 0 1 4.75v16.5a3.743 3.743 0 0 0 3.363 3.711l2.82 7.319a3.75 3.75 0 0 0 4.847 2.15l17.605-6.781a10.842 10.842 0 0 0 .934 9.626l.431.69v7.285c0 .414.336.75.75.75h13.5a.75.75 0 0 0 .75-.75V20.493a9.815 9.815 0 0 0-2.873-6.913L38.5 8.945zm0 4.486l2.276 5.909a2.25 2.25 0 0 1-1.291 2.907l-1.301.503a3.75 3.75 0 0 0 .316-1.5v-7.82zm-36 7.819V4.75A2.25 2.25 0 0 1 4.75 2.5h30A2.25 2.25 0 0 1 37 4.75v4.767h-.007l.007.017V21.25c-.006.13-.023.26-.051.389l-6.87-6.871a4.001 4.001 0 0 0-5.775 5.533l2.929 3.199H4.75a2.25 2.25 0 0 1-2.25-2.25zM12.108 25l-5.333 2.053L5.986 25h6.122zm-.618 8.03a2.25 2.25 0 0 1-2.908-1.29l-1.266-3.29L16.27 25v-.005h12.339l.974 1.063-18.092 6.973zM44.5 44.5h-12v-6h12v6zm0-7.5H32.166l-.325-.52a9.353 9.353 0 0 1-.19-9.605.75.75 0 0 0-.098-.879l-6.146-6.705a2.501 2.501 0 0 1 3.611-3.46l11.952 11.95 1.06-1.061-2.775-2.775.77-.3a3.75 3.75 0 0 0 2.15-4.845l-2.539-6.592 2.43 2.434a8.306 8.306 0 0 1 2.434 5.851V37z" fill="#E20E17" stroke="#E20E17" stroke-width=".1"/><path d="M9.55 11.5a1.95 1.95 0 0 0 1.95-1.95v-3.6A1.95 1.95 0 0 0 9.55 4h-3.6A1.95 1.95 0 0 0 4 5.95v3.6a1.95 1.95 0 0 0 1.95 1.95h3.6zM5.5 9.55V8.5H7V7H5.5V5.95a.45.45 0 0 1 .45-.45h3.6a.45.45 0 0 1 .45.45V7H8.5v1.5H10v1.05a.45.45 0 0 1-.45.45h-3.6a.45.45 0 0 1-.45-.45zm-.75 4.2h3v1.5h-3v-1.5zm0 4.5h3v1.5h-3v-1.5zm13.5 0h3v1.5h-3v-1.5zm-9-4.5h3v1.5h-3v-1.5zm4.5 0h3v1.5h-3v-1.5zm4.5 0h3v1.5h-3v-1.5zm14.25-9H34V7h-1.5V4.75zm-3 0H31V7h-1.5V4.75zm-3 0H28V7h-1.5V4.75zm-3 0H25V7h-1.5V4.75zM34 40h1.5v1.5H34V40z" fill="#E20E17" stroke="#E20E17" stroke-width=".1"/></svg>
